X:1
T:A Shropshire Lad
T:Into my Heart an Air that kills
T:A Shropshire Lad
T:9. Into my Heart an Air that kills
T:Arthur Somervell
T:A. E. Housman
T:Creative Commons copyright waiver (CC0 1.0 Universal)
T:Creative Commons copyright waiver (CC0 1.0 Universal)
C:Arthur Somervell
Z:A. E. Housman
Z:Creative Commons copyright waiver (CC0 1.0 Universal)
%%score 1 { ( 2 4 6 ) | ( 3 5 ) }
L:1/8
Q:1/4=78
M:4/4
K:Eb
V:1 treble nm="Voice"
V:2 treble nm="Piano"
V:4 treble 
V:6 treble 
V:3 bass 
V:5 bass 
V:1
"^Andante sostenuto *" z | z8[Q:1/4=77][Q:1/4=76] |[Q:1/4=78] z4!pp!!<(! B B2 B!<)! | %3
w: ||In- to my|
!p!!>(! B3!>)!!pp!!<(! B B3 B!<)! |!p!!>(! B2!>)! z2 z!pp!!<(! B B B!<)! |!p!!>(! B3 B B4!>)! | %6
w: heart an air that|kills From yon far|coun- try blows:|
 z8 |!pp!!<(! B2 B B!<)! B3!pp! B |!<(! B2 B2!<)! B3!pp! B |!<(! B3!<)! B!>(! B3 B!>)! | %10
w: |What are those blue re-|mem- ber’d hills, What|spires, what farms are|
!>(! B6!>)! z2[Q:1/4=76] |[M:2/4]"^Con molto espressione" z4 | %12
w: those?||
[M:4/4]!p![Q:1/4=78]!<(! B2 c3/2 B/!<)!!p! E3 E |!>(! G3 F B,4!>)! |!pp! z2!<(! (DE) (F!<)! B2) G | %15
w: That is the land of|lost con- tent,|I * see * it|
 E3!<(! F F3 F | (c2!<)!!mp! d3/2) c/ F3 F |!>(! A2 G2 C4!>)! |!p! z2[Q:1/4=76]!<(! (EG) B3 G!<)! | %19
w: shin- ing plain, The|hap- * py high- ways|where I went|And * can- not|
!>(! G6 F2 |[Q:1/4=78] E8!>)! | z8 |[Q:1/4=76] z8[Q:1/4=72] |[Q:1/4=60] !fermata!z8 |] %24
w: come a-|\- gain.||||
V:2
!pp! B, | ([A,C]E[B,D]!<(!F EG[DF]A)!<)! |!p! (B2 c>B) E3 E | G2 F2 B,4- | B,CDE F B2 G | %5
 [G,B,E]3 [=A,EF]!<(! [B,DF]4 | (c2!<)! d>c) F3 F |!>(! ([A,DA]2 [B,EG]2[K:bass] [E,C]4)!>)! | %8
!<(! (DFEG)!<)![K:treble] [A,DB]3 [G,EG] | ([CEG]3 [DF]!>(! ([egb]3) g)!>)! | %10
!>(! (gagf)!>)! (B3 G) |[M:2/4] (GAGF) |[M:4/4]!pp! [G,E]4 [B,EG]4 | (G3 F [B,E]4- | %14
 [G,B,E]2) (DC [F,B,F]3) z |!<(! ([B,EG]2 [DF][CE] [B,D]3) z!<)! |!mp! (c2 d>c) [EF]4 | %17
 ([A,DA]2 [=B,EG]2)!>(! (=EGFA)!>)! |!p! (DF E2)!<(! ([DF]A[EG]B) | (ce!<)!ge!>(! cedf)!>)! | %20
!pp!!<(! (b3 g)!<)!!>(! (gagf)!>)! |!pp!!<(! (B3 G)!<)!!>(! (GAGF)!>)! |[K:bass]!pp! B,8 | %23
 z4!pp! !fermata![B,,G,B,]4 |] %24
V:3
 z | E,2 F,2 [G,,E,]2 [F,,B,,]2 | z (E,,B,,E,) z (C,,B,,E,) | z (D,,B,,F,) z (E,,B,,F, | %4
 E,)(E,,F,,F,) z (D,,B,,F,) | z (C,,F,,F,) z (B,,,F,,B,,) | (=A,,F,CF,) F,4 | %7
"_* The tempo of this song should be much slower than that of No. 1." z (F,,G,,G,) z (A,,,E,,A,,) | %8
 [A,,F,]2 [G,,E,]2 z (F,,B,,[E,,E,]) | z (B,,, B,,2) E(E,,B,,E,) | [A,C]2 [B,D]2 (E,,B,,E,G,) | %11
[M:2/4] z4 |[M:4/4] z (E,,B,,E,) z (C,,G,,E,) | z (D,,B,,F,) z (E,,B,,F, | %14
 E,)(E,,F,,E,) z (D,,B,,F,) | z (C,, F,,2) z (B,,,F,,B,,) | (=A,,F,CF,) F,4 | z (F,,G,,G,) A,,4- | %18
 [A,,F,]2 [G,,E,]2 B,,4- | [B,,,B,,]8 |!ped! (E,,B,,E,G,)!ped-up! ([A,C]2 [B,D]2) | %21
!ped! (E,,B,,E,G,)!ped-up! z4 | [E,,B,,]6 z (E,, |!ped! E,,,4) !fermata!E,,4!ped-up! |] %24
V:4
 x | x4 B,4 | [EG]4 [G,B,]4 | [A,B,]4 A,G,F,A, | G,2 [F,=A,]2 B,4 | x8 | [EF]4 E4 | %7
 x4[K:bass] B,3 A, | B,2 [G,B,]2[K:treble] x4 | A,4 B4 | [A-c]2 [Ad]2 [B,EG]4 | %11
[M:2/4] [A,C]2 [B,D]2 |[M:4/4] x8 | [A,B,]4 A,G,F,A, | x2 [F,=A,]2 x4 | x2 =A,2 x4 | %16
 [EF]4 (=A,B,C_C) | x4 [G,C]2 [A,C]2 | B,4 B,4 | [GB]6 [AB]2 | [Beg]4 [A-c]2 [Ad]2 | %21
 [B,EG]4 [A,-C]2 [A,D]2 |[K:bass] (A,G,F,A, G,E,B,,) z | x8 |] %24
V:5
 x | A,,4 x4 | x8 | x8 | x8 | x8 | x4 (C,B,,=A,,_A,,) | x8 | x8 | x8 | x8 |[M:2/4] x4 |[M:4/4] x8 | %13
 x8 | x8 | x8 | x4 C,B,,=A,,_A,, | x8 | x4 F,,2 E,,2 | x8 | x8 | x8 | x8 | x8 |] %24
V:6
 x | x8 | x8 | x8 | x8 | x8 | x4 (=A,B,C_C) | x4[K:bass] x4 | x4[K:treble] x4 | x8 | x8 | %11
[M:2/4] x4 |[M:4/4] x8 | x8 | x8 | x8 | x8 | x8 | x8 | x8 | x8 | x8 |[K:bass] x8 | x8 |] %24

